X: 22
T:California Cotillion
R:March
M:4/4
L:1/8
N:From Paul Rangel
N:Transcribed by Bruce Thomson
K:G
|z4D3C|:B,2D2G3c|B2G2A2B2|d4c3B|c2cBA2G2|F2G2A2B2|
c2d2e2f2|e4d3c|d4D3C|B,2D2G3c|B2G2A2B2|d4c3B|c2cBA2G2|
F2G2A2B2|c2d2cBA2|G4G3F|G4g4||d4B3A|B4g4|f4A3B|
A6AB|c2B2c2d2|f6fe|d2d2efed|B4g4|d4B3A|B4g4|
f4A3B|A6AB|c2B2c2d2|f6fe|d2d2cBA2|G8||

